images/small-team-7.svg

<?xml version="1.0"?>
<svg xmlns="http://www.w3.org/2000/svg" xmlns:xlink="http://www.w3.org/1999/xlink" width="833px" height="224px" viewBox="0 0 833 224" version="1.1">
    <!-- Generator: Sketch 56.3 (81716) - https://sketch.com -->
    <title>images/small-team-7</title>
    <desc>Created with Sketch.</desc>
    <g id="05---Small-Team-7" stroke="none" stroke-width="1" fill="none" fill-rule="evenodd">
        <g id="brown" transform="translate(6.000000, 67.000000)">
            <rect id="Rectangle-1" fill="#EFEFE7" fill-rule="evenodd" x="0" y="0" width="89" height="33" rx="16.5"/>
            <text stroke="none" font-family="Source Code Pro" font-size="12px" font-weight="700" fill="#979797" fill-opacity="1" text-anchor="middle" id="C6">
                <tspan fill="#808080" x="44.5" y="21" fill-opacity="1">4b078</tspan>
            </text>
        </g>
        <g id="Line-+-brown-2" transform="translate(95.000000, 67.000000)">
            <path id="Line" d="M9,16 L54,16 L54,17 L9,17 L9,21 L0,16.5 L9,12 L9,16 Z" fill="#8F8981" fill-rule="nonzero"/>
            <g id="brown" transform="translate(30.000000, 0.000000)">
                <rect id="Rectangle-1" fill="#EFEFE7" fill-rule="evenodd" x="0" y="0" width="89" height="33" rx="16.5"/>
                <text stroke="none" font-family="Source Code Pro" font-size="12px" font-weight="700" fill="#979797" fill-opacity="1" text-anchor="middle" id="C6">
                    <tspan fill="#808080" x="44.5" y="21" fill-opacity="1">1edee</tspan>
                </text>
            </g>
        </g>
        <g id="Line-+-brown-3" transform="translate(214.000000, 67.000000)">
            <path id="Line" d="M9,16 L54,16 L54,17 L9,17 L9,21 L0,16.5 L9,12 L9,16 Z" fill="#8F8981" fill-rule="nonzero"/>
            <g id="jessica" transform="translate(30.000000, 0.000000)">
                <rect id="Rectangle-1" fill="#B8E986" fill-rule="evenodd" x="0" y="0" width="89" height="33" rx="16.5"/>
                <text stroke="none" font-family="Source Code Pro" font-size="12px" font-weight="700" fill="#979797" fill-opacity="1" text-anchor="middle" id="C3'">
                    <tspan fill="#808080" x="44.5" y="21" fill-opacity="1">fbff5</tspan>
                </text>
            </g>
        </g>
        <g id="Line-+-brown-6" transform="translate(209.000000, 95.000000)">
            <path id="Line" d="M7.83266063,4.82805823 L59.1939201,39.3640775 L58.6359225,40.1939201 L7.27466304,5.6579008 L5.04267269,8.97727107 L0.0850787153,0.221001205 L10.064651,1.50868795 L7.83266063,4.82805823 Z" fill="#8F8981" fill-rule="nonzero"/>
            <g id="john" transform="translate(35.000000, 23.000000)">
                <rect id="Rectangle-1" fill="#FCC161" fill-rule="evenodd" x="0" y="0" width="89" height="33" rx="16.5"/>
                <text stroke="none" font-family="Source Code Pro" font-size="12px" font-weight="700" fill="#979797" fill-opacity="1" text-anchor="middle" id="C3'">
                    <tspan fill="#808080" x="44.5" y="21" fill-opacity="1">738ee</tspan>
                </text>
            </g>
        </g>
        <path id="Line-4" d="M335.832661,99.8280582 L387.19392,134.364078 L386.635922,135.19392 L335.274663,100.657901 L333.042673,103.977271 L328.085079,95.2210012 L338.064651,96.508688 L335.832661,99.8280582 Z" fill="#8F8981" fill-rule="nonzero"/>
        <path id="Line-5" d="M342,134 L387,134 L387,135 L342,135 L342,139 L333,134.5 L342,130 L342,134 Z" fill="#8F8981" fill-rule="nonzero"/>
        <g id="john" transform="translate(363.000000, 118.000000)">
            <rect id="Rectangle-1" fill="#FCC161" fill-rule="evenodd" x="0" y="0" width="89" height="33" rx="16.5"/>
            <text stroke="none" font-family="Source Code Pro" font-size="12px" font-weight="700" fill="#979797" fill-opacity="1" text-anchor="middle" id="C3'">
                <tspan fill="#808080" x="44.5" y="21" fill-opacity="1">72bbc</tspan>
            </text>
        </g>
        <path id="Line-7" d="M693.832661,99.8280582 L745.19392,134.364078 L744.635922,135.19392 L693.274663,100.657901 L691.042673,103.977271 L686.085079,95.2210012 L696.064651,96.508688 L693.832661,99.8280582 Z" fill="#8F8981" fill-rule="nonzero"/>
        <path id="Line-6" d="M461,134 L745,134 L745,135 L461,135 L461,139 L452,134.5 L461,130 L461,134 Z" fill="#8F8981" fill-rule="nonzero"/>
        <g id="jessica" transform="translate(721.000000, 118.000000)">
            <rect id="Rectangle-1" fill="#B8E986" fill-rule="evenodd" x="0" y="0" width="89" height="33" rx="16.5"/>
            <text stroke="none" font-family="Source Code Pro" font-size="12px" font-weight="700" fill="#979797" fill-opacity="1" text-anchor="middle" id="C3'">
                <tspan fill="#808080" x="44.5" y="21" fill-opacity="1">8059c</tspan>
            </text>
        </g>
        <g id="Line-+-brown-4" transform="translate(333.000000, 66.000000)">
            <path id="Line" d="M9,16 L54,16 L54,17 L9,17 L9,21 L0,16.5 L9,12 L9,16 Z" fill="#8F8981" fill-rule="nonzero"/>
            <g id="jessica" transform="translate(30.000000, 0.000000)">
                <rect id="Rectangle-1" fill="#B8E986" fill-rule="evenodd" x="0" y="0" width="89" height="33" rx="16.5"/>
                <text stroke="none" font-family="Source Code Pro" font-size="12px" font-weight="700" fill="#979797" fill-opacity="1" text-anchor="middle" id="C3'">
                    <tspan fill="#808080" x="44.5" y="21" fill-opacity="1">8149a</tspan>
                </text>
            </g>
        </g>
        <g id="Line-+-brown-5" transform="translate(452.000000, 66.000000)">
            <path id="Line" d="M9,16 L54,16 L54,17 L9,17 L9,21 L0,16.5 L9,12 L9,16 Z" fill="#8F8981" fill-rule="nonzero"/>
            <g id="jessica" transform="translate(30.000000, 0.000000)">
                <rect id="Rectangle-1" fill="#B8E986" fill-rule="evenodd" x="0" y="0" width="89" height="33" rx="16.5"/>
                <text stroke="none" font-family="Source Code Pro" font-size="12px" font-weight="700" fill="#979797" fill-opacity="1" text-anchor="middle" id="C3'">
                    <tspan fill="#808080" x="44.5" y="21" fill-opacity="1">23ac6</tspan>
                </text>
            </g>
        </g>
        <path id="Line-3" d="M580,82 L625,82 L625,83 L580,83 L580,87 L571,82.5 L580,78 L580,82 Z" fill="#8F8981" fill-rule="nonzero"/>
        <g id="jessica" transform="translate(601.000000, 66.000000)">
            <rect id="Rectangle-1" fill="#B8E986" fill-rule="evenodd" x="0" y="0" width="89" height="33" rx="16.5"/>
            <text stroke="none" font-family="Source Code Pro" font-size="12px" font-weight="700" fill="#979797" fill-opacity="1" text-anchor="middle" id="C3'">
                <tspan fill="#808080" x="44.5" y="21" fill-opacity="1">4af42</tspan>
            </text>
        </g>
        <g id="Line-2-+-ref" transform="translate(708.000000, 151.000000)">
            <path id="Line-2" d="M58,9 L58,32 L57,32 L57,9 L53,9 L57.5,0 L62,9 L58,9 Z" fill="#8F8981" fill-rule="nonzero"/>
            <g id="ref" transform="translate(0.000000, 22.000000)">
                <rect id="Rectangle-2" fill="#F44D27" x="0" y="0" width="116" height="38"/>
                <text stroke="none" font-family="Source Code Pro" font-size="12px" font-weight="700" fill="#979797" fill-opacity="1" text-anchor="middle" id="master">
                    <tspan fill="#f0f0f0" x="58" y="21.5151515" fill-opacity="1">origin/master</tspan>
                </text>
            </g>
        </g>
        <g id="Line-2-+-ref-2" transform="translate(708.000000, 5.000000)">
            <path id="Line-2" d="M57,103 L57,8 L58,8 L58,103 L62,103 L57.5,112 L53,103 L57,103 Z" fill="#8F8981" fill-rule="nonzero"/>
            <g id="ref">
                <rect id="Rectangle-2" fill="#F44D27" x="0" y="0" width="116" height="38"/>
                <text stroke="none" font-family="Source Code Pro" font-size="12px" font-weight="700" fill="#979797" fill-opacity="1" text-anchor="middle" id="master">
                    <tspan fill="#f0f0f0" x="58" y="21.5151515" fill-opacity="1">master</tspan>
                </text>
            </g>
        </g>
        <g id="Line-2-+-ref-3" transform="translate(588.000000, 5.000000)">
            <path id="Line-2" d="M57,52 L57,9 L58,9 L58,52 L62,52 L57.5,61 L53,52 L57,52 Z" fill="#8F8981" fill-rule="nonzero"/>
            <g id="ref">
                <rect id="Rectangle-2" fill="#F44D27" x="0" y="0" width="116" height="38"/>
                <text stroke="none" font-family="Source Code Pro" font-size="12px" font-weight="700" fill="#979797" fill-opacity="1" text-anchor="middle" id="master">
                    <tspan fill="#f0f0f0" x="58" y="21.5151515" fill-opacity="1">issue54</tspan>
                </text>
            </g>
        </g>
    </g>
</svg>

<?xml version="1.0" encoding="UTF-8"?>
<svg id="svg21946" version="1.1" viewBox="0 0 817.5 205.25" xmlns="http://www.w3.org/2000/svg" xmlns:cc="http://creativecommons.org/ns#" xmlns:dc="http://purl.org/dc/elements/1.1/" xmlns:rdf="http://www.w3.org/1999/02/22-rdf-syntax-ns#">
 <metadata id="metadata21952">
  <rdf:RDF>
   <cc:Work rdf:about="">
    <dc:format>image/svg+xml</dc:format>
    <dc:type rdf:resource="http://purl.org/dc/dcmitype/StillImage"/>
    <dc:title>images/small-team-7</dc:title>
   </cc:Work>
  </rdf:RDF>
 </metadata>
 <!-- Generator: Sketch 56.3 (81716) - https://sketch.com -->
 <title id="title21827">images/small-team-7</title>
 <desc id="desc21829">Created with Sketch.</desc>
 <g id="g22236" transform="translate(-2,-5.9)">
  <g id="brown" transform="translate(6,66)" style="fill-rule:evenodd;fill:none">
   <rect id="Rectangle-1" width="89" height="33" rx="16.5" ry="16.5" style="fill-rule:evenodd;fill:#efefe7"/>
   <text id="C6" font-size="12px" font-weight="700" style="fill:#979797;font-family:'Source Code Pro';font-size:12px;font-weight:700;text-anchor:middle"><tspan id="tspan21832" x="44.5" y="21" style="fill:gray">4b078</tspan></text>
  </g>
  <g id="Line-+-brown-2" transform="translate(95,66)" style="fill-rule:evenodd;fill:none">
   <path id="Line" d="m9 16h45v1h-45v4l-9-4.5 9-4.5z" style="fill-rule:nonzero;fill:#8f8981"/>
   <g id="g21843" transform="translate(30)">
    <rect id="rect21837" width="89" height="33" rx="16.5" ry="16.5" style="fill-rule:evenodd;fill:#efefe7"/>
    <text id="text21841" font-size="12px" font-weight="700" style="fill:#979797;font-family:'Source Code Pro';font-size:12px;font-weight:700;text-anchor:middle"><tspan id="tspan21839" x="44.5" y="21" style="fill:gray">1edee</tspan></text>
   </g>
  </g>
  <g id="Line-+-brown-3" transform="translate(213.98 65.991)" style="fill-rule:evenodd;fill:none">
   <path id="path21846" d="m9 16h45v1h-45v4l-9-4.5 9-4.5z" style="fill-rule:nonzero;fill:#8f8981"/>
   <g id="jessica" transform="translate(30)">
    <rect id="rect21848" width="89" height="33" rx="16.5" ry="16.5" style="fill-rule:evenodd;fill:#b8e986"/>
    <text id="C3'" font-size="12px" font-weight="700" style="fill:#979797;font-family:'Source Code Pro';font-size:12px;font-weight:700;text-anchor:middle"><tspan id="tspan21850" x="44.5" y="21" style="fill:gray">fbff5</tspan></text>
   </g>
  </g>
  <g id="g22162">
   <path id="path21855" transform="translate(208.4 94.365)" d="m7.8327 4.8281 51.361 34.536-.558.82984-51.361-34.536-2.232 3.3194-4.9576-8.7563 9.9796 1.2877z" style="fill:#8f8981"/>
   <g id="john" transform="translate(244,118)" style="fill-rule:evenodd;fill:none">
    <rect id="rect21857" width="89" height="33" rx="16.5" ry="16.5" style="fill-rule:evenodd;fill:#fcc161"/>
    <text id="text21861" font-size="12px" font-weight="700" style="fill:#979797;font-family:'Source Code Pro';font-size:12px;font-weight:700;text-anchor:middle"><tspan id="tspan21859" x="44.5" y="21" style="fill:gray">738ee</tspan></text>
   </g>
  </g>
  <g id="g22148">
   <path id="Line-4" transform="translate(-.39392 -.66408)" d="m335.83 99.828 51.361 34.536-.558.82984-51.361-34.536-2.232 3.3194-4.9576-8.7563 9.9796 1.2877z" style="fill:#8f8981"/>
   <path id="Line-5" d="m342 134h45v1h-45v4l-9-4.5 9-4.5z" style="fill:#8f8981"/>
   <g id="g21873" transform="translate(363,118)" style="fill-rule:evenodd;fill:none">
    <rect id="rect21867" width="89" height="33" rx="16.5" ry="16.5" style="fill-rule:evenodd;fill:#fcc161"/>
    <text id="text21871" font-size="12px" font-weight="700" style="fill:#979797;font-family:'Source Code Pro';font-size:12px;font-weight:700;text-anchor:middle"><tspan id="tspan21869" x="44.5" y="21" style="fill:gray">72bbc</tspan></text>
   </g>
  </g>
  <g id="g22133">
   <path id="Line-7" transform="translate(-1.6099 -.63484)" d="m693.83 99.828 51.361 34.536-.558.82984-51.361-34.536-2.232 3.3194-4.9576-8.7563 9.9796 1.2877z" style="fill:#8f8981"/>
   <path id="Line-6" d="m461 134h284v1h-284v4l-9-4.5 9-4.5z" style="fill:#8f8981"/>
   <g id="g21883" transform="translate(721,118)" style="fill-rule:evenodd;fill:none">
    <rect id="rect21877" width="89" height="33" rx="16.5" ry="16.5" style="fill-rule:evenodd;fill:#b8e986"/>
    <text id="text21881" font-size="12px" font-weight="700" style="fill:#979797;font-family:'Source Code Pro';font-size:12px;font-weight:700;text-anchor:middle"><tspan id="tspan21879" x="44.5" y="21" style="fill:gray">8059c</tspan></text>
   </g>
  </g>
  <g id="g22155">
   <path id="path21885" transform="translate(333,66)" d="m9 16h45v1h-45v4l-9-4.5 9-4.5z" style="fill:#8f8981"/>
   <g id="g22038">
    <rect id="rect21887" transform="translate(363,66)" width="89" height="33" rx="16.5" ry="16.5" style="fill-rule:evenodd;fill:#b8e986"/>
    <text id="text21891" transform="translate(363.02 65.31)" font-size="12px" font-weight="700" style="fill-rule:evenodd;fill:#979797;font-family:'Source Code Pro';font-size:12px;font-weight:700;text-anchor:middle"><tspan id="tspan21889" x="44.5" y="21" style="fill:gray">8149a</tspan></text>
   </g>
  </g>
  <g id="Line-+-brown-5" transform="translate(452,66)" style="fill-rule:evenodd;fill:none">
   <path id="path21896" d="m9 16h45v1h-45v4l-9-4.5 9-4.5z" style="fill-rule:nonzero;fill:#8f8981"/>
   <g id="g21904" transform="translate(30)">
    <rect id="rect21898" width="89" height="33" rx="16.5" ry="16.5" style="fill-rule:evenodd;fill:#b8e986"/>
    <text id="text21902" font-size="12px" font-weight="700" style="fill:#979797;font-family:'Source Code Pro';font-size:12px;font-weight:700;text-anchor:middle"><tspan id="tspan21900" x="44.5" y="21" style="fill:gray">23ac6</tspan></text>
   </g>
  </g>
  <g id="g22140">
   <path id="Line-3" d="m580 82h45v1h-45v4l-9-4.5 9-4.5z" style="fill:#8f8981"/>
   <g id="g21914" transform="translate(601,66)" style="fill-rule:evenodd;fill:none">
    <rect id="rect21908" width="89" height="33" rx="16.5" ry="16.5" style="fill-rule:evenodd;fill:#b8e986"/>
    <text id="text21912" font-size="12px" font-weight="700" style="fill:#979797;font-family:'Source Code Pro';font-size:12px;font-weight:700;text-anchor:middle"><tspan id="tspan21910" x="44.5" y="21" style="fill:gray">4af42</tspan></text>
   </g>
  </g>
  <g id="g22111">
   <path id="Line-2" transform="translate(708,151)" d="m58 9v23h-1v-23h-4l4.5-9 4.5 9z" style="fill:#8f8981"/>
   <g id="g22104" transform="translate(-.47234 -.6)">
    <rect id="Rectangle-2" transform="matrix(.86207 0 0 .86842 715.97 174.75)" width="116" height="38" style="fill-rule:evenodd;fill:#f44d27"/>
    <text id="master" transform="translate(708,173)" font-size="12px" font-weight="700" style="fill-rule:evenodd;fill:#979797;font-family:'Source Code Pro';font-size:12px;font-weight:700;text-anchor:middle"><tspan id="tspan21918" x="58" y="21.515152" style="fill:#f0f0f0">origin/master</tspan></text>
   </g>
  </g>
  <g id="g22125">
   <path id="path21923" transform="translate(708,6)" d="m57 103v-95h1v95h4l-4.5 9-4.5-9z" style="fill:#8f8981"/>
   <g id="g22118">
    <rect id="rect21925" transform="matrix(.76724 0 0 .86842 721 10)" width="116" height="38" style="fill-rule:evenodd;fill:#f44d27"/>
    <text id="text21929" transform="translate(707.6 8.8008)" font-size="12px" font-weight="700" style="fill-rule:evenodd;fill:#979797;font-family:'Source Code Pro';font-size:12px;font-weight:700;text-anchor:middle"><tspan id="tspan21927" x="58" y="21.515152" style="fill:#f0f0f0">master</tspan></text>
   </g>
  </g>
  <g id="g22075">
   <path id="path21934" transform="translate(588,5)" d="m57 52v-43h1v43h4l-4.5 9-4.5-9z" style="fill:#8f8981"/>
   <g id="g22068" transform="translate(13)">
    <rect id="rect21936" transform="matrix(.76724 0 0 .86842 588 9.9)" width="116" height="38" style="fill-rule:evenodd;fill:#f44d27"/>
    <text id="text21940" transform="translate(574.28 9.3428)" font-size="12px" font-weight="700" style="fill-rule:evenodd;fill:#979797;font-family:'Source Code Pro';font-size:12px;font-weight:700;text-anchor:middle"><tspan id="tspan21938" x="58" y="21.515152" style="fill:#f0f0f0">issue54</tspan></text>
   </g>
  </g>
 </g>
</svg>
